svg/fluentui-system-icons/ic_fluent_channel_add_28_filled.svg

<svg width="28" height="28" viewBox="0 0 28 28" fill="none" xmlns="http://www.w3.org/2000/svg">
<path d="M3.16838 6.06162C3.35586 6.02125 3.55045 6 3.75 6C5.26878 6 6.5 7.23122 6.5 8.75C6.5 10.2688 5.26878 11.5 3.75 11.5C3.48999 11.5 3.23842 11.4639 3 11.3965V20.75C3 23.0972 4.90279 25 7.25 25H14.4995C13.5579 23.7465 13 22.1884 13 20.5C13 19.0294 13.4232 17.6577 14.1546 16.5H9.75C9.33579 16.5 9 16.1642 9 15.75C9 15.3358 9.33579 15 9.75 15H15.4009C16.7391 13.7588 18.5309 13 20.5 13C22.1884 13 23.7465 13.5579 25 14.4995V7.25C25 4.90279 23.0972 3 20.75 3H7.25C5.31528 3 3.6825 4.29278 3.16838 6.06162ZM9.75 11H18.25C18.6642 11 19 11.3358 19 11.75C19 12.1642 18.6642 12.5 18.25 12.5H9.75C9.33579 12.5 9 12.1642 9 11.75C9 11.3358 9.33579 11 9.75 11ZM3.00077 7.16804C2.40912 7.44875 2 8.0516 2 8.75C2 9.4481 2.40876 10.0507 3 10.3316C3.22731 10.4396 3.4816 10.5 3.75 10.5C4.7165 10.5 5.5 9.7165 5.5 8.75C5.5 7.7835 4.7165 7 3.75 7C3.48191 7 3.22789 7.06029 3.00077 7.16804ZM27 20.5C27 24.0899 24.0899 27 20.5 27C16.9101 27 14 24.0899 14 20.5C14 16.9101 16.9101 14 20.5 14C24.0899 14 27 16.9101 27 20.5ZM21 16.5C21 16.2239 20.7761 16 20.5 16C20.2239 16 20 16.2239 20 16.5V20H16.5C16.2239 20 16 20.2239 16 20.5C16 20.7761 16.2239 21 16.5 21H20V24.5C20 24.7761 20.2239 25 20.5 25C20.7761 25 21 24.7761 21 24.5V21H24.5C24.7761 21 25 20.7761 25 20.5C25 20.2239 24.7761 20 24.5 20H21V16.5Z" fill="#212121"/>
</svg>

<svg xmlns="http://www.w3.org/2000/svg" width="28" height="28"><path d="M3.168 6.062A2.75 2.75 0 1 1 3 11.397v9.353A4.25 4.25 0 0 0 7.25 25h7.25a7.466 7.466 0 0 1-1.5-4.5c0-1.47.423-2.842 1.155-4H9.75a.75.75 0 0 1 0-1.5h5.65a7.473 7.473 0 0 1 5.1-2c1.688 0 3.247.558 4.5 1.5V7.25A4.25 4.25 0 0 0 20.75 3H7.25a4.252 4.252 0 0 0-4.082 3.062ZM9.75 11h8.5a.75.75 0 0 1 0 1.5h-8.5a.75.75 0 0 1 0-1.5ZM3 7.168a1.75 1.75 0 1 0 1.5 3.163A1.75 1.75 0 0 0 3 7.168ZM27 20.5a6.5 6.5 0 1 1-13 0 6.5 6.5 0 0 1 13 0Zm-6-4a.5.5 0 0 0-1 0V20h-3.5a.5.5 0 0 0 0 1H20v3.5a.5.5 0 0 0 1 0V21h3.5a.5.5 0 0 0 0-1H21v-3.5Z"/></svg>
